X:1436
T:Dance of the Honey Bee
O:england
Q:140
M:6/8
L:1/8
C:Transcribed by John Layton
R:Jig
H:Music from Susan Bowles
K:D
BAG|FFFE2F|D2FA2F|GGGF2G|E3E2F|
G2FG2A|Bcde2d|c2eg2e|c2AG2E|
FFFE2F|D2FA2F|GGGF2G|E3E2F|
G2FG2A|Bcde2d|c2AG2E|D3:|
|:ABc|d2Aa2A|e2Aa2d|BcdA2F|D2EF2A|
B2ee2f|e3e2d|c2de2f|g2ec2e|
d2Aa2A|e2Aa2d|BcdA2F|D2EF2A|
B2ee2d|c2de2d|c2AG2E|D3:|


